X:1
T: Highland Donald
C:
R:Reel
Q: 232
K:D
M:4/4
L:1/8
dc|B2 B2 B2 AB|c2 B2 B2 c2|A3F E2 F2|A2 B2 A2 F2| F2 B2 B2 AB|c2 B2 B2 c2|A3F E2 F2|B4 B2 dc|
B2 B2 B2 AB|c2 B2 B2 c2|A3F E2 F2|A2 B2 A2 F2| F2 B2 B2 AB|c2 B2 B2 c2|A3F E2 F2|B4 B2 A2|
d4 d3e|f2 d2 B2 A2|e4 e3f|gf ed B2 A2| d3e f2 d2|B2 d2 A3F|B2 A2 F2 A2|B4 B2 A2|
d4 d3e|f2 d2 B2 A2|e4 e3f|gf ed B2 A2| d3e f2 d2|B2 d2 A3F|B2 A2 F2 A2|B4 B2||
